!!!!SEGMENT: pl-sa--168-a-iv-18--004_luna-georgius--missa-sanctus.krn
!!!cenid: 17xx:517
!!!COM: Luna, Georgius
!!!COM-rismid: pe41010079
!!!CDT:
!!!CNT:
!!!OPR: Missa
!!!OTL: Sanctus
!!!OMV: 004
!!!PDT:
!!!AGN: Sacred; Mass
!!!SMS-siglum: PL-SA
!!!SMS-shelfmark: 168/A IV 18
!!!SMS-shelfwork: 001-004 M
!!!SMS-variant:
!!!SMS-altvar:
!!!NIFC-rismid: 1001070167
!!!URL-scan: http://bc.bdsandomierz.pl/dlibra/publication/1554/edition/1522/content
!!!ONB-nifc: UWAGA: części Mszy: Kirie, Gloria, Credo, Sanctus, Benedictus, Agnus Dei
**kern	**text	**kern	**text	**kern	**text	**kern	**text	**kern	**text	**kern	**text
*part6	*part6	*part5	*part5	*part4	*part4	*part3	*part3	*part2	*part2	*part1	*part1
*group2	*	*group2	*	*group2	*	*group1	*	*group1	*	*group1	*
*staff6	*staff6	*staff5	*staff5	*staff4	*staff4	*staff3	*staff3	*staff2	*staff2	*staff1	*staff1
*Iempty	*	*Ivioln	*	*Ivioln	*	*Iempty	*	*Itenor	*	*Ivox	*
*I"[Bassi]	*	*I"Violino Secundo	*	*I"Violino Primo	*	*I"Baſso	*	*I"Tenore	*	*I"Canto.	*
*I'B.c.	*	*I'V-no II	*	*I'V-no I	*	*I'B.	*	*I'T.	*	*I'C.	*
*clefF4	*	*clefG2	*	*clefG2	*	*clefF4	*	*clefC4	*	*clefC1	*
*Trd0c0	*	*	*	*	*	*	*	*	*	*	*
*k[f#]	*	*k[f#]	*	*k[f#]	*	*k[f#]	*	*k[f#]	*	*k[f#]	*
*G:	*	*G:	*	*G:	*	*G:	*	*G:	*	*G:	*
*M4/4	*	*M4/4	*	*M4/4	*	*M4/4	*	*M4/4	*	*M4/4	*
*met(c)	*	*met(c)	*	*met(c)	*	*met(c)	*	*met(c)	*	*met(c)	*
=1	=1	=1	=1	=1	=1	=1	=1	=1	=1	=1	=1
!LO:TX:a:t=adagio	!	!LO:TX:a:t=adagio	!	!LO:TX:a:t=Adagio	!	!LO:TX:a:t=Adagio	!	!LO:TX:a:t=adagio	!	!LO:TX:a:t=adagio	!
8G\L	Sanctus	8b\L	Sanctus	8gg\L	Sanctus	4G\	San-	4G/	San-	4b\	San-
8G\	.	8b\	.	8gg\	.	.	.	.	.	.	.
8G\	.	8b\	.	8gg\	.	4G\	-ctus	4G/	-ctus	4b\	-ctus
8G\J	.	8b\J	.	8gg\J	.	.	.	.	.	.	.
!	!	!	!	!	!	!	!	!	!	!LO:TX:t=P:problem:2\right:global	!
8d\L	.	8a\L	.	8ff#\L	.	4d\	.	2F#/	San-	2a\	san-
8D\	.	8a\	.	8ff#\	.	.	.	.	.	.	.
8D\	.	8a\	.	8ff#\	.	4D\	san-	.	.	.	.
8D\J	.	8a\J	.	8ff#\J	.	.	.	.	.	.	.
=2	=2	=2	=2	=2	=2	=2	=2	=2	=2	=2	=2
[1G	.	8b\L	.	8gg\L	.	4G\	-ctus	8G/	-ctus	8b\	-ctus
.	.	8b\	.	8dd\	.	.	.	8B\L	San-	8dd\L	san-
!	!	!	!	!	!	!	!	!	!	!LO:TX:t=P:problem:w źródle między 8ee a 8ff# skreślona, omyłkowo wpisana nuta	!
.	.	(8cc\	.	8ee\	.	8G\	san-	8c\J	.	8ee\J	.
.	.	8dd\J)	.	8ffn\J	.	8G\	-ctus	8d\	-ctus	8ff#\	-ctus
.	.	8cc\L	.	(8ee\L	.	4G\	Do-	(8c\L	.	(>8ee\L	Do-
.	.	8b\	.	8dd\)	.	.	.	8B\)J	Do-	8dd\)J	.
.	.	(8cc\	.	(8ee\	.	8G\	-mi-	8c\	-mi-	8ee\	-mi-
.	.	8a\J)	.	8cc\J)	.	8G\	-nus	8A\	-nus	8cc\	-nus
=3	=3	=3	=3	=3	=3	=3	=3	=3	=3	=3	=3
!LO:TX:t=P:problem:2\right:global	!	!	!	!	!	!	!	!	!	!	!
2G\]	.	8b/L	.	(8dd\L	.	4G\	De-	(8B\L	De-	(8dd\L	De-
.	.	(8a/	.	8cc\)	.	.	.	8A\J)	.	8cc\J)	.
.	.	8b)/	.	(8dd\	.	4G\	-us	(8B\L	-us	(8dd\L	-us
.	.	8g/J	.	8b\J)	.	.	.	8G\J)	.	8b\J)	.
2D\	.	8a/L	.	(8cc\L	.	4D\	sa-	(8A/L	Sa-	(8cc\L	sa-
.	.	(8g/	.	8b\)	.	.	.	8G/J)	.	8b\J)	.
.	.	8a)/	.	8cc\	.	4D\	-ba-	(8A/L	-ba-	(8cc\L	-ba-
.	.	8f#/J	.	8a'\J	.	.	.	8F#/J)	.	8a\J)	.
=4	=4	=4	=4	=4	=4	=4	=4	=4	=4	=4	=4
8G\L	.	8g/L	.	8b\L	.	8G\	-oth	8G/	-oth	8b\	-oth
16G\L	.	8b/	.	8gg\	.	16G\LL	Do-	8G/	Do-	8b\	Do-
16A\JJ	.	.	.	.	.	16A\JJ	.	.	.	.	.
16B\LL	.	8b/	.	8gg\	.	(16B\LL	-mi-	8G/	-mi-	8b\	-mi-
16A\	.	.	.	.	.	16A\JJ)	.	.	.	.	.
16B\	.	8b/J	.	8gg\J	.	16B\LL	-nus	8G/	-nus	8b\	-nus
16c\JJ	.	.	.	.	.	16c\JJ	.	.	.	.	.
!LO:TX:a:t=P:problem:mixed beam	!	!	!	!LO:TX:a:t=P:problem:mixed beam	!	!	!	!	!	!	!
8d\L	.	8a/L	.	8ff#\L	.	8d\	De-	8F#/	De-	8a\	De-
8D/	.	8f#/	.	8a/	.	8D\	-us	8F#/	-us	8a\	-us
8D\	.	8g/	.	8b\	.	8D\	sa-	8G/	sa-	8b\	sa-
8D\J	.	8a/J	.	8cc\J	.	8D\	-ba-	8A/	-ba-	8cc\	-ba-
!LO:LB:g=original	!	!	!	!	!	!LO:LB:g=original	!	!LO:LB:g=original	!	!	!
=5	=5	=5	=5	=5	=5	=5	=5	=5	=5	=5	=5
!	!	!	!	!LO:TX:a:t=P:problem:mixed beam	!	!	!	!	!	!	!
8G\L	.	8g/L	.	8b/L	.	8G\	-oth	8G/	-oth	8b\	-oth
16G\L	.	8b/	.	8gg\	.	(16G\LL	Do-	8G/	Do-	8b\	Do-
!	!	!	!	!	!	!	!	!	!	!LO:LB:g=original	!
16A\JJ	.	.	.	.	.	16A\JJ)	.	.	.	.	.
16B\LL	.	8b/	.	8gg\	.	16B\LL	-mi-	8G/	-mi-	8b\	-mi-
16A\	.	.	.	.	.	16A\JJ	.	.	.	.	.
16B\	.	8b/J	.	8gg\J	.	16B\LL	-nus	8G/	-nus	8b\	-nus
16c\JJ	.	.	.	.	.	16c\JJ	.	.	.	.	.
!LO:TX:a:t=P:problem:mixed beam	!	!	!	!LO:TX:a:t=P:problem:mixed beam	!	!	!	!	!	!	!
8d\L	.	8a/L	.	8ff#\L	.	8d\	De-	8F#/	De-	8a\	De-
8D/	.	8f#/	.	8a/	.	8D\	-us	8F#/	-us	8a\	-us
8D\	.	8g/	.	8b\	.	8D\	sa-	8G/	sa-	8b\	sa-
8D\J	.	8a/J	.	8cc\J	.	8D\	-ba-	8A/	-ba-	8cc\	-ba-
=6	=6	=6	=6	=6	=6	=6	=6	=6	=6	=6	=6
2.G\	.	8g/L	.	8b\L	.	4G\	-oth	8G/	-oth	8b\	-oth-
.	.	16b/L	.	16dd\L	.	.	.	8B/	sa-	8dd\	.
.	.	16g/JJ	.	16b\JJ	.	.	.	.	.	.	.
!	!	!	!	!	!	!LO:TX:t=P:problem:2\right:global	!	!	!	!	!
.	.	4cc\	.	4ee\	.	2G\	sa-	(4c\	.	4ee\	.
.	.	8b\L	.	8dd\L	.	.	.	8B\L	.	8dd\L	.
.	.	16b\L	.	16dd\L	.	.	.	16B\L	.	(16dd\L	.
.	.	16g\JJ	.	16b\JJ	.	.	.	16G\JJ	.	16b\JJ)	.
4D\	.	4a\	.	4cc\	.	8D\	.	8A\L)	.	8cc\L	.
.	.	.	.	.	.	8D\	-ba-	8A\J	-ba-	8cc\J	-ba-
=7	=7	=7	=7	=7	=7	=7	=7	=7	=7	=7	=7
2.G\	.	8g\L	.	8b\L	.	4G\	-oth	8G\	-oth	8b\L	-oth
.	.	16b\L	.	16dd\L	.	.	.	8B\	sa-	8dd\J	Sa-
.	.	16g\JJ	.	16b\JJ	.	.	.	.	.	.	.
.	.	4cc\	.	4ee\	.	2G\	sa-	(4c\	.	4ee\	.
!	!	!	!	!LO:LB:g=original	!	!	!	!	!	!	!
.	.	8b\L	.	8dd\L	.	.	.	8B\L	.	8dd\L	.
.	.	16b\L	.	16dd\L	.	.	.	16B\L	.	(16dd\L	.
.	.	16g\JJ	.	16b\JJ	.	.	.	16G\JJ	.	16b\JJ)	.
4D\	.	4a\	.	4cc\	.	8D\	.	8A\L)	.	8cc\L	.
.	.	.	.	.	.	8D\	-ba-	8A\J	-ba-	8cc\J	-ba-
=8	=8	=8	=8	=8	=8	=8	=8	=8	=8	=8	=8
4G\	.	16g/LL	.	16b\LL	.	4G\	-oth	4G/	-oth	4b\	-oth
.	.	16b/	.	16gg\	.	.	.	.	.	.	.
.	.	16a/	.	16ff#\	.	.	.	.	.	.	.
.	.	16b/JJ	.	16gg\JJ	.	.	.	.	.	.	.
!	!	!LO:LB:g=original	!	!	!	!	!	!	!	!	!
8d\L	.	16f#/LL	.	16a\LL	.	8d\	sa-	8F#/L	.	8a\L	sa-
.	.	16a/	.	16ff#\	.	.	.	.	.	.	.
8D\J	.	16g/	.	16ee\	.	8D\	-ba-	8F#/J	saba-	8a\J	-ba-
.	.	16a/JJ	.	16ff#\JJ	.	.	.	.	.	.	.
!	!	!	!	!LO:TX:t=P:problem:2\right:global	!	!	!	!	!	!	!
2G;\	.	2b/	.	2gg\	.	2G\	-oth	2G/	-oth	2b\	-oth
!	!	!	!	!	!	!LO:LB:g=original	!	!LO:LB:g=original	!	!LO:LB:g=original	!
=9||	=9||	=9||	=9||	=9||	=9||	=9||	=9||	=9||	=9||	=9||;	=9||
*M3/8	*	*M3/8	*	*M3/8	*	*M3/8	*	*M3/8	*	*M3/8	*
!LO:TX:a:t=All(egr)o	!	!LO:TX:a:t=All(egr)o	!	!LO:TX:a:t=all(egr)o	!	!LO:TX:a:t=all(egr)o	!	!	!	!LO:TX:a:t=all(egr)o	!
4.GG/	Pleni	8B/L	pleni	8g/L	pleni	8G\	Ple-	8B\	Ple-	8g\	Ple-
.	.	8d/	.	8b/	.	8G\	-ni	8d\	-ni	8b\	-ni
.	.	8c/J	.	8a/J	.	8G\	sunt	8c\	sunt	8a\	sunt
=10	=10	=10	=10	=10	=10	=10	=10	=10	=10	=10	=10
!	!	!	!	!	!	!LO:SIC:s=coe	!	!LO:SIC:s=coe	!	!LO:SIC:s=coe	!
4.GG/	.	8B/L	.	8g\L	.	8G\	ce-	8B\	ce-	8g\	ce-
.	.	8g/	.	8b\	.	8G\	-li	8G\	-li	8b\	-li
.	.	8b/J	.	8dd\J	.	8G\	et	8B\	et	8dd\	et
=11	=11	=11	=11	=11	=11	=11	=11	=11	=11	=11	=11
.	.	.	.	8qqdd/	.	.	.	.	.	8qqdd/	.
4.D\	.	8a/L	.	8cc\L	.	4.D\	ter-	8A\L	ter-	8cc\L	ter-
.	.	16g/L	.	(16b\L	.	.	.	(16G\L	.	(16b\L	.
.	.	(16c/	.	16a\)	.	.	.	(16c\	.	16a\)	.
.	.	16B/)	.	(16g\	.	.	.	16B\)	.	(16g\	.
.	.	16A/JJ	.	16f#\JJ)	.	.	.	16A\JJ)	.	16f#\JJ)	.
=12	=12	=12	=12	=12	=12	=12	=12	=12	=12	=12	=12
!LO:TX:a:t=P:problem:mixed beamm	!	!	!	!	!	!	!	!	!	!	!
.	.	8qqA/	.	8qqf#/	.	.	.	8qqA/	.	8qqf#/	.
8G\L	.	4.B/	.	4.g/	.	4.G\	-ra	4.B\	-ra	4.g\	-ra
8D\	.	.	.	.	.	.	.	.	.	.	.
8GG/J	.	.	.	.	.	.	.	.	.	.	.
=13	=13	=13	=13	=13	=13	=13	=13	=13	=13	=13	=13
4.GG/	.	8B/L	.	8g/L	.	8G\	glo-	8B\	glo-	8g\	glo-
.	.	8d/	.	8b/	.	8G\	-ri-	8d\	-ri-	8b\	-ri-
.	.	8c/J	.	8a/J	.	8G\	-a	8c\	-a	8a\	-a
=14	=14	=14	=14	=14	=14	=14	=14	=14	=14	=14	=14
4.GG/	.	8B/L	.	8g/L	.	8G\	glo-	8B\	glo-	8g\	glo-
.	.	8g/	.	8b\	.	8G\	-ri-	8G\	-ri-	8b\	-ri-
.	.	8b/J	.	8dd\J	.	8G\	-a	8A\	-a	8dd\	-a
=15	=15	=15	=15	=15	=15	=15	=15	=15	=15	=15	=15
.	.	8qqb/	.	8qqdd/	.	.	.	.	.	8qqdd/	.
4.D\	.	8a/L	.	8cc\L	.	4.D\	tu-	8A\L	tu-	8cc\L	tu-
.	.	(16g/L	.	(16b\L	.	.	.	(16G\L	.	16b\L	.
.	.	16c/)	.	16a\)	.	.	.	(16c\	.	(>16a\	.
.	.	16B/	.	(16g\	.	.	.	16B\)	.	16g\	.
!	!	!	!	!LO:TX:a:t=problem&colon;brak kreski taktowej	!	!	!	!	!	!	!
.	.	16A/JJ	.	16f#\JJ)	.	.	.	16A\JJ)	.	16f#\JJ)	.
=16	=16	=16	=16	=16	=16	=16	=16	=16	=16	=16	=16
!LO:TX:a:t=P:problem:mixed beam	!	!	!	!	!	!	!	!	!	!	!
8G\L	.	4B/	.	4g/	.	4G\	-a	4B\	-a	4g\	-a
8D\	.	.	.	.	.	.	.	.	.	.	.
8GG/J	.	8cc\	.	8ee\	.	8G\	ple-	8c\	ple-	8ee\	Ple-
=17	=17	=17	=17	=17	=17	=17	=17	=17	=17	=17	=17
!LO:TX:t=P:problem:takty 17-20 zapisane na końcu strony; miejsce wstawienia tych taktów oznaczone przez "vi"-"de"	!	!	!	!	!	!	!	!	!	!	!
4.GG/	.	8cc\L	.	(8ee\L	.	8G\	.	8c\	.	8ee\	.
.	.	8b\	.	8dd\J)	.	8G\	-ni	8B\	-ni	8dd\	-ni
.	.	8b\J	.	(16gg\LL	.	8G\	sunt	8B\	sunt	8dd\	sunt
.	.	.	.	16dd\JJ)	.	.	.	.	.	.	.
!	!	!	!	!	!	!LO:LB:g=original	!	!LO:LB:g=original	!	!LO:LB:g=original	!
=18	=18	=18	=18	=18	=18	=18	=18	=18	=18	=18	=18
!LO:TX:a:t=P:problem:mixed beam	!	!	!	!	!	!LO:SIC:s=coe	!	!LO:SIC:s=coe	!	!LO:SIC:s=coe	!
.	.	8qqb/	.	8qqdd/	.	.	.	.	.	8qqdd/	.
8D\L	.	(8a/L	.	8cc\L	.	8D\	ce-	8A\	ce-	8cc\	Ce-
8G\	.	8g)/	.	8b\J	.	8G\	-li	8G\	-li	8b\	-li
8GG/J	.	8cc/J|	.	8ee\	.	8G\	sunt	8c\	sunt	8ee\	sunt
!	!	!	!	!LO:LB:g=original	!	!	!	!	!	!	!
=19	=19	=19	=19	=19	=19	=19	=19	=19	=19	=19	=19
!	!	!	!	!	!	!LO:SIC:s=coe	!	!LO:SIC:s=coe	!	!LO:SIC:s=coe	!
4.GG/	.	8cc\L	.	(8ee\L	.	8G\	ce-	8c\	ce-	8ee\	ce-
.	.	(8b\	.	8dd\J)	.	8G\	-li	8B\	-li	8dd\	-li
.	.	8b\J)	.	(16gg\LL	.	8G\	et	8B\	et	8dd\	et
.	.	.	.	16dd\JJ)	.	.	.	.	.	.	.
=20	=20	=20	=20	=20	=20	=20	=20	=20	=20	=20	=20
.	.	8qqb/	.	8qqdd/	.	.	.	.	.	.	.
8D\L	.	8a\L	.	8cc\L	.	8E\	ter-	8A\	ter-	8cc\	ter-
8G\	.	8g\J	.	8b\	.	8G\	-ra	8G\	-ra	8b\	-ra
8A\J	.	8cc#X\	.	8ee\J	.	8G\	glo-	(8c#X\	glo-	8ee\	glo-
!LO:LB:g=original	!	!	!	!	!	!	!	!	!	!	!
=21	=21	=21	=21	=21	=21	=21	=21	=21	=21	=21	=21
4D\	.	8dd\L	.	8ff#\L	.	8d\	.	8d\	.	8ff#\	.
.	.	8ee\	.	8gg\	.	8D\	-ri-	8e\)	-ri-	8gg\	-ri-
8A\	.	8cc#X\J	.	8ee\J	.	8A\	-a	8c#X\	-a	8ee\	-a
!	!	!LO:LB:g=original	!	!	!	!	!	!	!	!	!
=22	=22	=22	=22	=22	=22	=22	=22	=22	=22	=22	=22
4d\	.	8dd\L	.	8ff#\L	.	8D\	glo-	8d\	glo-	8ff#\	glo-
.	.	8ee\	.	8gg\	.	8G\	-ri-	8e\	-ri-	8gg\	-ri-
8A\	.	8cc#X\J	.	8ee\J	.	8A\	-a	8c#X\	-a	8ee\	-a
=23	=23	=23	=23	=23	=23	=23	=23	=23	=23	=23	=23
!LO:TX:a:t=P:problem:mixed beam	!	!	!	!	!	!LO:TX:a:t=P:problem:mixed beam	!	!	!	!	!
8D\L	.	8dd\L	.	8ff#\L	.	8D\L	tu-	(8d\L	tu-	8ff#\L	tu-
8A\	.	(16b\L	.	16gg\L	.	8A\	.	16B\L	.	16gg\L	.
.	.	16g\JJ)	.	16ee\	.	.	.	16G\	.	(16ee\	.
8AA/J	.	(16f#/LL	.	16dd\	.	8AA/J	.	16F#\	.	16dd\	.
.	.	16e/JJ)	.	16cc#X\JJ	.	.	.	16E\JJ)	.	16cc#X\JJ)	.
=24	=24	=24	=24	=24	=24	=24	=24	=24	=24	=24	=24
!	!	!	!	!LO:SIC:s=8qcc#	!	!	!	!	!	!	!
.	.	8qqe/	.	8qqcc/	.	.	.	8qqE/	.	8qqcc/	.
8D\L	.	4f#/	.	4dd\	.	4D\	-a	4F#/	-a	4dd\	-a
8F#\	.	.	.	.	.	.	.	.	.	.	.
8A\J	.	8cc#X\	.	8ee\	.	8A\	glo-	(8c#X\	glo-	8ee\	glo-
=25	=25	=25	=25	=25	=25	=25	=25	=25	=25	=25	=25
4D\	.	8dd\L	.	8ff#\L	.	8d\	.	8d\	.	8ff#\	.
.	.	8ee\	.	8gg\	.	8d\	-ri-	8e\)	-ri-	8gg\	-ri-
8A\	.	8cc#X\J	.	8ee\J	.	8A\	-a	8c#X\	-a	8ee\	-a
!	!	!	!	!	!	!LO:LB:g=original	!	!LO:LB:g=original	!	!LO:LB:g=original	!
=26	=26	=26	=26	=26	=26	=26	=26	=26	=26	=26	=26
4d\	.	8dd\L	.	8ff#\L	.	8D\	glo-	8d\	glo-	8ff#\	glo-
.	.	8ee\	.	8gg\	.	8D\	-ri-	8e\	-ri-	8gg\	-ri-
8A\	.	8cc#X\J	.	8ee\J	.	8A\	-a	8c#X\	-a	8ee\	-a
=27	=27	=27	=27	=27	=27	=27	=27	=27	=27	=27	=27
!LO:TX:a:t=P:problem:mixed beam	!	!	!	!	!	!LO:TX:a:t=P:problem:mixed beam	!	!	!	!	!
8D\L	.	8dd\L	.	8ff#\L	.	8D\L	tu-	(8d\L	tu-	8ff#\L	tu-
8A\	.	(16b\L	.	16gg\L	.	8A\	.	16B\L	.	16gg\L	.
.	.	16g\JJ)	.	16ee\	.	.	.	16G\	.	(>16ee\	.
8AA/J	.	(16f#/LL	.	16dd\	.	8AA/J	.	16F#\	.	16dd\	.
.	.	16e/JJ)	.	16cc#X\JJ	.	.	.	16E\JJ)	.	16cc\JJ)	.
=28	=28	=28	=28	=28	=28	=28	=28	=28	=28	=28	=28
.	.	.	.	.	.	.	.	8qqE/	.	.	.
[4.D\	.	4f#/	.	4dd\	.	4.D\	-a	4.F#/	-a	4.dd\	-a
.	.	(16cc#X\LL	.	(16ee\LL	.	.	.	.	.	.	.
.	.	16dd\JJ)	.	16ff#\JJ)	.	.	.	.	.	.	.
=29	=29	=29	=29	=29	=29	=29	=29	=29	=29	=29	=29
4.D\_	.	4f#/	.	4dd\	.	4.D\	glo-	4.F#/	glo-	[4.dd\	glo-
.	.	(16dd\LL	.	(16ff#\LL	.	.	.	.	.	.	.
.	.	16ff#\JJ)	.	16aa\JJ)	.	.	.	.	.	.	.
=30	=30	=30	=30	=30	=30	=30	=30	=30	=30	=30	=30
4.D\_	.	4f#/	.	4dd\	.	4D\	-ri-	4F#/	-ri-	4dd\]	-ri-
.	.	(16cc#X\LL	.	(16ee\LL	.	8D\	-a	16G/LL	-a	16ee\LL	-a
.	.	16dd\JJ)	.	16ff#\JJ)	.	.	.	16A/JJ	.	16ff#\JJ	.
=31	=31	=31	=31	=31	=31	=31	=31	=31	=31	=31	=31
4.D\]	.	4f#/	.	4dd\	.	4.D\	tu-	4.F#/	tu-	4dd\	tu-
.	.	16dd\LL	.	(16ff#\LL	.	.	.	.	.	8r	.
.	.	16ff#\JJ	.	16aa\JJ)	.	.	.	.	.	.	.
=32	=32	=32	=32	=32	=32	=32	=32	=32	=32	=32	=32
!LO:TX:a:t=P:problem:mixed beam	!	!	!	!	!	!	!	!	!	!	!
8D/L	.	4f#/	.	4dd\	.	4D\	-a	4F#/	-a	4dd\	-a
16d\L	.	.	.	.	.	.	.	.	.	.	.
16c\	.	.	.	.	.	.	.	.	.	.	.
16B\	.	8r	.	8r	.	8r	.	8r	.	8r	.
16A\JJ	.	.	.	.	.	.	.	.	.	.	.
=33	=33	=33	=33	=33	=33	=33	=33	=33	=33	=33	=33
4.G\	.	8B/L	.	8g/L	.	8G\	ple-	8B\	ple-	8g\	ple-
.	.	8d/	.	8b/	.	8G\	-ni	8d\	-ni	8b\	-ni
.	.	8c/J	.	8a/J	.	8G\	sunt	8cn\	sunt	8a\	sunt
!	!	!	!	!LO:LB:g=original	!	!	!	!	!	!	!
=34	=34	=34	=34	=34	=34	=34	=34	=34	=34	=34	=34
!	!	!	!	!	!	!LO:SIC:s=coe	!	!LO:SIC:s=coe	!	!LO:SIC:s=coe	!
4.G\	.	8B/L	.	8g/L	.	8G\	ce-	8B\	ce-	8g\	ce-
.	.	8g/	.	8b\	.	8G\	-li	8G\	-li	8b\	-li
.	.	8b/J	.	8dd\J	.	8G\	et	8B\	et	8dd\	et
=35	=35	=35	=35	=35	=35	=35	=35	=35	=35	=35	=35
.	.	8qqb/	.	8qqdd/	.	.	.	.	.	8qqdd/	.
4.D\	.	8a/L	.	8cc\L	.	4.D\	ter-	(8A\L	ter-	8cc\L	ter-
.	.	(16g/L	.	(16b\L	.	.	.	16G\L	.	(16b\L	.
.	.	16cn/)	.	16a\)	.	.	.	16c\	.	16a\	.
.	.	16B/	.	(16g\	.	.	.	16B\	.	16g\	.
.	.	16A/JJ	.	16f#\JJ)	.	.	.	16A\JJ)	.	16f#\JJ)	.
!	!	!LO:LB:g=original	!	!	!	!LO:LB:g=original	!	!LO:LB:g=original	!	!	!
=36	=36	=36	=36	=36	=36	=36	=36	=36	=36	=36	=36
!LO:TX:a:t=P:problem:mixed beam	!	!	!	!	!	!	!	!	!	!	!
.	.	8qqA/	.	8qqf#/	.	.	.	8qqA/	.	8qqf#/	.
8G\L	.	4.B/	.	4.g/	.	4.G\	-ra	4.B\	-ra	4.g\	-ra
8D\	.	.	.	.	.	.	.	.	.	.	.
8GG/J	.	.	.	.	.	.	.	.	.	.	.
!	!	!	!	!	!	!	!	!	!	!LO:LB:g=original	!
=37	=37	=37	=37	=37	=37	=37	=37	=37	=37	=37	=37
4.GG/	.	8B/L	.	8g/L	.	8G\	glo-	8B\	glo-	8g\	glo-
.	.	8d/	.	8b/	.	8G\	-ri-	8d\	-ri-	8b\	-ri-
.	.	8c/J	.	8a/J	.	8G\	-a	8c\	-a	8a\	-a
=38	=38	=38	=38	=38	=38	=38	=38	=38	=38	=38	=38
4.GG/	.	8B/L	.	8g\L	.	8G\	glo-	8B\	glo-	8g\	glo-
.	.	8g/	.	8b\	.	8G\	-ri-	8G\	-ri-	8b\	-ri-
.	.	8b/J	.	8dd\J	.	8G\	-a	8B\	-a	8dd\	-a
!LO:LB:g=original	!	!	!	!	!	!	!	!	!	!	!
=39	=39	=39	=39	=39	=39	=39	=39	=39	=39	=39	=39
.	.	8qqb/	.	8qqdd/	.	.	.	.	.	8qqdd	.
4.D\	.	8a/L	.	16cc\LL	.	4.D\	tu-	(8A\L	tu-	8cc\L	tu-
.	.	.	.	16cc\	.	.	.	.	.	.	.
.	.	(16g/L	.	(16b\	.	.	.	16G\L	.	16b\L	.
.	.	16c/)	.	16a\)	.	.	.	16c\	.	(16a\	.
.	.	16B/	.	(16g\	.	.	.	16B\	.	16g)\	.
.	.	16A/JJ	.	16f#\JJ)	.	.	.	16A\JJ)	.	16f#\JJ	.
=40	=40	=40	=40	=40	=40	=40	=40	=40	=40	=40	=40
!LO:TX:a:t=P:problem:mixed beam	!	!	!	!	!	!	!	!	!	!	!
.	.	8qqA/	.	8qqf#/	.	.	.	8qqA/	.	8qqf#/	.
8G\L	.	4B/	.	4g/	.	4G\	-a	4B\	-a	4g\	-a
8GG/	.	.	.	.	.	.	.	.	.	.	.
8G\J	.	8cc\	.	8ee\	.	8G\	ple-	(8c\	ple-	[8ee\	ple-
=41	=41	=41	=41	=41	=41	=41	=41	=41	=41	=41	=41
4.G\	.	8cc\L	.	(8ee\L	.	8G\	.	8c\	.	8ee\]	.
.	.	8b\J	.	8dd\J)	.	8G\	-ni	8B\)	-ni	8dd\	-ni
.	.	8b\	.	16gg\LL	.	8G\	sunt	8B\	sunt	8dd\	sunt
.	.	.	.	16dd\JJ	.	.	.	.	.	.	.
=42	=42	=42	=42	=42	=42	=42	=42	=42	=42	=42	=42
!LO:TX:a:t=P:problem:mixed beam	!	!	!	!	!	!LO:SIC:s=coe	!	!LO:SIC:s=coe	!	!LO:SIC:s=coe	!
.	.	8qqb/	.	8qqdd/	.	.	.	8qqB/	.	8qqdd/	.
8D\L	.	8a/L	.	8cc/L	.	8D\	ce-	8A\	ce-	8cc\	ce-
8G\	.	(8g/	.	8b/	.	8G\	-li	8G\	-li	8b\	-li
8GG/J	.	8a/J)	.	8ee/J	.	8G\	sunt	8c\	sunt	8ee\	sunt
!	!	!	!	!	!	!LO:LB:g=original	!	!	!	!	!
=43	=43	=43	=43	=43	=43	=43	=43	=43	=43	=43	=43
!	!	!	!	!	!	!LO:SIC:s=coe	!	!LO:SIC:s=coe	!	!LO:SIC:s=coe	!
4.GG/	.	8cc\L	.	(8ee\L	.	8G\	ce-	8c\	ce-	8ee\	ce-
.	.	8b\	.	8dd\J)	.	8G\	-li	8B\	-li	8dd\	-li
.	.	8b\J	.	16gg\LL	.	8G\	et	8B\	et	8dd\	et
.	.	.	.	16dd\JJ	.	.	.	.	.	.	.
!	!	!	!	!	!	!	!	!LO:LB:g=original	!	!	!
=44	=44	=44	=44	=44	=44	=44	=44	=44	=44	=44	=44
.	.	8qqb/	.	8qqdd/	.	.	.	8qqB/	.	8qqdd/	.
8D\L	.	(8a/L	.	8cc\L	.	8D\	ter-	8A\	ter-	8cc\	ter-
8G\	.	8g/)	.	8b\	.	8G\	-ra	8G\	-ra	8b\	-ra
8D\J	.	8f#/J|	.	8a\J	.	8D\	glo-	(>8F#/	glo-	(8a\	glo-
=45	=45	=45	=45	=45	=45	=45	=45	=45	=45	=45	=45
4GG/	.	8g/L	.	8b\L	.	8G\	.	8G/	.	8b\)	.
.	.	8a/	.	8cc\	.	8G\	-ri-	8A/)	-ri-	8cc\	-ri-
8D\	.	8f#/J	.	8a\J	.	8D\	-a	8F#/	-a	8a\	-a
!	!	!	!	!	!	!	!	!	!	!LO:LB:g=original	!
=46	=46	=46	=46	=46	=46	=46	=46	=46	=46	=46	=46
4G\	.	(8g/L	.	8b\L	.	8G\	glo-	8G/	glo-	8b\	glo-
.	.	8a/)	.	8cc\	.	8G\	-ri-	8A/	-ri-	8cc\	-ri-
8D\	.	8f#/J|	.	8a\J	.	8D\	-a	8F#/	-a	8a\	-a
=47	=47	=47	=47	=47	=47	=47	=47	=47	=47	=47	=47
8GG/L	.	8g/L	.	8b\L	.	8G\L	tu-	(<8G/L	tu-	8b\L	tu-
8C/	.	(16e/L	.	16cc\L	.	8C\	.	16A\L	.	(16cc\L	.
.	.	16c/)	.	16a\	.	.	.	16c\	.	16b\	.
8D/J	.	16B/	.	16g\	.	8D\J	.	16B\	.	16a\	.
.	.	16A/JJ	.	16f#\JJ	.	.	.	16A\JJ)	.	16g\JJ)	.
!	!	!	!	!LO:LB:g=original	!	!	!	!	!	!	!
=48	=48	=48	=48	=48	=48	=48	=48	=48	=48	=48	=48
.	.	.	.	8qqf#/	.	.	.	.	.	.	.
8GG/L	.	4B/	.	4g/	.	4GG/	-a	4B\	-a	4g\	-a
8BB/	.	.	.	.	.	.	.	.	.	.	.
8D/J	.	8f#/	.	8a/	.	8D\	glo-	8F#/	glo-	(8a\	glo-
=49	=49	=49	=49	=49	=49	=49	=49	=49	=49	=49	=49
4GG/	.	8g/L	.	8b\L	.	8G\	.	(<8G/	.	8b\)	.
.	.	8a/	.	8cc\	.	8G\	-ri-	8A/	-ri-	8cc\	-ri-
8D\	.	8f#/J	.	8b\J	.	8D\	-a	8F#/)	-a	8a\	-a
!	!	!LO:LB:g=original	!	!	!	!LO:LB:g=original	!	!	!	!	!
=50	=50	=50	=50	=50	=50	=50	=50	=50	=50	=50	=50
4G\	.	8g/L	.	8b\L	.	8G\	glo-	8G/	glo-	8b\	glo-
.	.	8a/	.	8cc\	.	8G\	-ri-	8A/	-ri-	8cc\	-ri-
8D\	.	8f#/J	.	8a\J	.	8D\	-a	8F#/	-a	8a\	-a
=51	=51	=51	=51	=51	=51	=51	=51	=51	=51	=51	=51
8GG/L	.	8g/L	.	8b\L	.	8G\L	tu-	(8G\L	tu-	8b\L	tu-
8C/	.	(16e/L	.	(16cc\L	.	8E\	.	16A\L	.	(16cc\L	.
.	.	16c/)	.	16a\)	.	.	.	16c\	.	16a\	.
8D/J	.	16B/	.	(16g\	.	8F#\J	.	16B\	.	16g\	.
.	.	16A/JJ	.	16f#\JJ)	.	.	.	16A\JJ)	.	16f#\JJ)	.
!	!	!	!	!	!	!	!	!LO:LB:g=original	!	!	!
=52	=52	=52	=52	=52	=52	=52	=52	=52	=52	=52	=52
.	.	.	.	.	.	.	.	.	.	8qqf#/	.
4.GG/	.	4B/	.	4g/	.	4GG/	-a	4B\	-a	4g\	-a
.	.	(16f#/LL	.	(16a/LL	.	8G\	glo-	(8d\	glo-	(16a\LL	glo-
.	.	16g/JJ)	.	16b/JJ)	.	.	.	.	.	16b\JJ)	.
=53	=53	=53	=53	=53	=53	=53	=53	=53	=53	=53	=53
4.GG/	.	4B/	.	4g/	.	4G\	.	4.d\	.	4g\	.
.	.	16g/LL	.	(16b/LL	.	8r	.	.	.	(16b\LL	.
.	.	16b/JJ	.	16dd/JJ)	.	.	.	.	.	16dd\JJ)	.
=54	=54	=54	=54	=54	=54	=54	=54	=54	=54	=54	=54
4.GG/	.	4B/	.	4g/	.	4G\	-ri-	4d\)	-ri-	4g\	-ri-
.	.	16f#/LL	.	(16a/LL	.	8G\	-a	8d\	-a	(16a\LL	-a
.	.	16g/JJ	.	16b/JJ)	.	.	.	.	.	16b\JJ)	.
=55	=55	=55	=55	=55	=55	=55	=55	=55	=55	=55	=55
4.GG/	.	4B/	.	4g/	.	4.G\	tu-	4.d\	tu-	4g\	tu-
.	.	16g/LL	.	(16b/LL	.	.	.	.	.	(16b\LL	.
.	.	16b/JJ	.	16dd/JJ)	.	.	.	.	.	16dd\JJ)	.
=56	=56	=56	=56	=56	=56	=56	=56	=56	=56	=56	=56
4.GG/	.	4B/	.	4g/	.	4G\	-a	4d\	-a	4g\	-a
.	.	8r	.	8r	.	8r	.	8r	.	8r	.
==	==	==	==	==	==	==	==	==	==	==	==
*-	*-	*-	*-	*-	*-	*-	*-	*-	*-	*-	*-
!!!system-decoration: [g1][g2]
!!!RDF**kern: > = above
!!!RDF**kern: < = below
!!!EED: Antoni Szymański
!!!EST: 2020-09-29
!!!ENC: Andrzej Gręziak
!!!END: 2020-05-19
!!!RDF**kern: | = vertical stroke
